img/mainmenu/fittoscreen.svg

<?xml version="1.0" encoding="UTF-8"?>
<svg width="512" height="512" fill="none" version="1.1" viewBox="0 0 512 512" xmlns="http://www.w3.org/2000/svg">
 <g transform="matrix(24.251 0 0 24.251 -35.002 -35.002)">
  <path d="m15 15v-1h-1v1zm5.2929 6.7071c0.3905 0.3905 1.0237 0.3905 1.4142 0s0.3905-1.0237 0-1.4142zm-5.2929-12.707h-1v1h1zm6.7071-5.2929c0.3905-0.39053 0.3905-1.0237 0-1.4142-0.3905-0.39052-1.0237-0.39052-1.4142 0zm-12.707 11.293h1v-1h-1zm-6.7071 5.2929c-0.39052 0.3905-0.39052 1.0237 0 1.4142 0.39053 0.3905 1.0237 0.3905 1.4142 0zm6.7071-11.293v1h1v-1zm-5.2929-6.7071c-0.39053-0.39052-1.0237-0.39052-1.4142 0-0.39052 0.39053-0.39052 1.0237 0 1.4142zm12.293 17.707v-5h-2v5zm-1-4h5v-2h-5zm-0.7071-0.2929 6 6 1.4142-1.4142-6-6zm-0.2929-11.707v5h2v-5zm1 6h5v-2h-5zm0.7071-0.29289 6-6-1.4142-1.4142-6 6zm-5.7071 10.293v-5h-2v5zm-1-6h-5v2h5zm-0.70711 0.2929-6 6 1.4142 1.4142 6-6zm-0.29289-10.293v5h2v-5zm1 4h-5v2h5zm0.70711 0.29289-6-6-1.4142 1.4142 6 6z" fill="#fff"/>
 </g>
</svg>

<?xml version="1.0" encoding="UTF-8" standalone="no"?>
<svg
   width="512"
   height="512"
   viewBox="0 0 512 512"
   fill="none"
   version="1.1"
   id="svg4"
   sodipodi:docname="fittoscreen.svg"
   inkscape:version="1.2.1 (9c6d41e410, 2022-07-14)"
   xmlns:inkscape="http://www.inkscape.org/namespaces/inkscape"
   xmlns:sodipodi="http://sodipodi.sourceforge.net/DTD/sodipodi-0.dtd"
   xmlns="http://www.w3.org/2000/svg"
   xmlns:svg="http://www.w3.org/2000/svg">
  <defs
     id="defs8" />
  <sodipodi:namedview
     id="namedview6"
     pagecolor="#ffffff"
     bordercolor="#666666"
     borderopacity="1.0"
     inkscape:showpageshadow="2"
     inkscape:pageopacity="0.0"
     inkscape:pagecheckerboard="0"
     inkscape:deskcolor="#d1d1d1"
     showgrid="false"
     inkscape:zoom="1.1341146"
     inkscape:cx="190.45695"
     inkscape:cy="330.65442"
     inkscape:window-width="1920"
     inkscape:window-height="1051"
     inkscape:window-x="0"
     inkscape:window-y="0"
     inkscape:window-maximized="1"
     inkscape:current-layer="svg4" />
  <g
     id="g238"
     transform="matrix(24.250822,0,0,24.250822,-35.001644,-35.001644)">
    <path
       d="m 15,15 v -1 h -1 v 1 z m 5.2929,6.7071 c 0.3905,0.3905 1.0237,0.3905 1.4142,0 0.3905,-0.3905 0.3905,-1.0237 0,-1.4142 z M 15,9 h -1 v 1 h 1 z m 6.7071,-5.29289 c 0.3905,-0.39053 0.3905,-1.02369 0,-1.41422 -0.3905,-0.39052 -1.0237,-0.39052 -1.4142,0 z M 9,15 h 1 V 14 H 9 Z m -6.70711,5.2929 c -0.39052,0.3905 -0.39052,1.0237 0,1.4142 0.39053,0.3905 1.02369,0.3905 1.41422,0 z M 9,9 v 1 h 1 V 9 Z M 3.70711,2.29289 c -0.39053,-0.39052 -1.02369,-0.39052 -1.41422,0 -0.39052,0.39053 -0.39052,1.02369 0,1.41422 z M 16,20 v -5 h -2 v 5 z m -1,-4 h 5 v -2 h -5 z m -0.7071,-0.2929 6,6 1.4142,-1.4142 -6,-6 z M 14,4 v 5 h 2 V 4 Z m 1,6 h 5 V 8 h -5 z m 0.7071,-0.29289 6,-6 -1.4142,-1.41422 -6,6 z M 10,20 V 15 H 8 v 5 z M 9,14 H 4 v 2 h 5 z m -0.70711,0.2929 -6,6 1.41422,1.4142 6,-6 z M 8,4 v 5 h 2 V 4 Z M 9,8 H 4 v 2 h 5 z m 0.70711,0.29289 -6,-6 -1.41422,1.41422 6,6 z"
       fill="#ffffff"
       id="path2" />
  </g>
</svg>
